X: 22799
T: Lanigan's Ball
R: jig
M: 6/8
K: Eminor
|:EFE G2A|~B2A B^cd|DED F2G|ABA AFD|
EFE G2A|~B2A B^cd|edB cBA|1 BGE E2D:|2 BGE E2d||
|:e2f gfe|fag fed|e2f gfe|fdB B2d|
e2f gfe|fag fed|edB cBA|1 BGE E2d:|2 BGE E2D||

